.vercel/output/static/favicon.svg

<svg width="48" height="48" viewBox="0 0 48 48" fill="none" xmlns="http://www.w3.org/2000/svg">
<g id="Group 12">
<g id="Vector">
<path d="M33.8405 37.3858H21.1471C17.789 37.3858 15.2907 36.7284 13.6519 35.4137C12.0401 34.0989 11.2341 32.0742 11.2341 29.3395V17.0335C11.2341 14.2988 12.0401 12.2741 13.6519 10.9594C15.2907 9.64462 17.789 8.98724 21.1471 8.98724H31.2212C31.7317 8.98724 32.0943 9.10557 32.3093 9.34223C32.551 9.55259 32.6719 9.90757 32.6719 10.4072V15.1797C32.6719 15.6793 32.551 16.0474 32.3093 16.2841C32.0943 16.4944 31.7317 16.5996 31.2212 16.5996H22.8396C22.0068 16.5996 21.3889 16.7705 20.9859 17.1124C20.5829 17.4279 20.3815 17.9144 20.3815 18.5717V27.9985C20.3815 28.6559 20.5292 29.1423 20.8247 29.4579C21.1471 29.7734 21.6172 29.9312 22.2351 29.9312H26.1439V23.7781C26.1439 23.2785 26.2513 22.9236 26.4662 22.7132C26.708 22.4765 27.0841 22.3582 27.5945 22.3582H33.8405C34.3509 22.3582 34.7136 22.4765 34.9285 22.7132C35.1703 22.9236 35.2912 23.2785 35.2912 23.7781V35.9658C35.2912 36.4655 35.1703 36.8336 34.9285 37.0702C34.7136 37.2806 34.3509 37.3858 33.8405 37.3858ZM22.8798 33.836H30.8989V25.908H30.4959V33.4415H22.8798C20.1665 33.4415 18.3398 33.0866 17.3995 32.3766C16.4861 31.6666 16.0294 30.4571 16.0294 28.7479V17.704C16.0294 15.9686 16.4458 14.7458 17.2786 14.0359C18.1114 13.2996 19.7098 12.9315 22.0739 12.9315H29.0452V12.5371H22.0739C19.4949 12.5371 17.7756 12.9315 16.916 13.7203C16.0563 14.5092 15.6265 15.8371 15.6265 17.704V28.7479C15.6265 29.6682 15.7205 30.4571 15.9085 31.1144C16.1235 31.7455 16.4996 32.2714 17.0368 32.6921C17.5741 33.0866 18.3129 33.3758 19.2532 33.5599C20.1934 33.7439 21.4023 33.836 22.8798 33.836Z" fill="#0D6EFD"/>
<path d="M23.036 39.0128C19.5168 39.0128 16.9109 38.316 15.2185 36.9223C13.5529 35.5287 12.7201 33.412 12.7201 30.5721V18.2661C12.7201 15.4262 13.5529 13.3095 15.2185 11.9158C16.9109 10.5222 19.5168 9.8254 23.036 9.8254H33.1101C33.7549 9.8254 34.225 9.97002 34.5205 10.2593C34.816 10.5485 34.9638 11.0087 34.9638 11.6397V16.4123C34.9638 17.0434 34.816 17.5035 34.5205 17.7928C34.225 18.082 33.7549 18.2266 33.1101 18.2266H24.7285C24.0568 18.2266 23.5464 18.3581 23.1972 18.6211C22.8479 18.8577 22.6733 19.2521 22.6733 19.8043V29.2311C22.6733 29.757 22.7808 30.1514 22.9957 30.4143C23.2375 30.651 23.6136 30.7693 24.124 30.7693H27.6298V25.0107C27.6298 24.3796 27.7776 23.9195 28.0731 23.6302C28.3686 23.341 28.8387 23.1964 29.4835 23.1964H35.7294C36.3742 23.1964 36.8443 23.341 37.1398 23.6302C37.4353 23.9195 37.5831 24.3796 37.5831 25.0107V37.1984C37.5831 37.8295 37.4353 38.2897 37.1398 38.5789C36.8443 38.8682 36.3742 39.0128 35.7294 39.0128H23.036ZM35.7294 38.6184C36.2398 38.6184 36.6025 38.5132 36.8174 38.3028C37.0592 38.0662 37.1801 37.698 37.1801 37.1984V25.0107C37.1801 24.5111 37.0592 24.1561 36.8174 23.9458C36.6025 23.7091 36.2398 23.5908 35.7294 23.5908H29.4835C28.973 23.5908 28.5969 23.7091 28.3551 23.9458C28.1402 24.1561 28.0328 24.5111 28.0328 25.0107V31.1637H24.124C23.5061 31.1637 23.036 31.006 22.7136 30.6904C22.4181 30.3749 22.2704 29.8884 22.2704 29.2311V19.8043C22.2704 19.1469 22.4718 18.6605 22.8748 18.345C23.2778 18.0031 23.8957 17.8322 24.7285 17.8322H33.1101C33.6206 17.8322 33.9832 17.727 34.1982 17.5167C34.4399 17.28 34.5608 16.9119 34.5608 16.4123V11.6397C34.5608 11.1401 34.4399 10.7852 34.1982 10.5748C33.9832 10.3381 33.6206 10.2198 33.1101 10.2198H23.036C19.6779 10.2198 17.1796 10.8772 15.5408 12.1919C13.929 13.5067 13.123 15.5314 13.123 18.2661V30.5721C13.123 33.3068 13.929 35.3315 15.5408 36.6462C17.1796 37.961 19.6779 38.6184 23.036 38.6184H35.7294ZM24.7688 35.0685C23.2912 35.0685 22.0823 34.9765 21.1421 34.7924C20.2018 34.6084 19.463 34.3191 18.9257 33.9247C18.3885 33.504 18.0124 32.9781 17.7974 32.347C17.6094 31.6896 17.5154 30.9008 17.5154 29.9805V18.9366C17.5154 17.0696 17.9452 15.7418 18.8049 14.9529C19.6645 14.1641 21.3838 13.7696 23.9628 13.7696H30.9341V14.1641H23.9628C21.5988 14.1641 20.0003 14.5322 19.1675 15.2684C18.3347 15.9784 17.9183 17.2011 17.9183 18.9366V29.9805C17.9183 31.6896 18.375 32.8992 19.2884 33.6092C20.2287 34.3191 22.0554 34.6741 24.7688 34.6741H32.3848V27.1406H32.7878V35.0685H24.7688Z" fill="#0D6EFD"/>
</g>
<rect id="Rectangle 8" x="1" y="1" width="46" height="46" stroke="#0D6EFD" stroke-width="2"/>
</g>
</svg>

<svg xmlns="http://www.w3.org/2000/svg" width="48" height="48" fill="none" viewBox="0 0 48 48">
  <g id="Group 12">
    <g id="Vector" fill="#0d6efd">
      <path
        d="M33.84 37.386H21.148q-5.037 0-7.495-1.972-2.418-1.973-2.418-6.074V17.034q0-4.102 2.418-6.075 2.458-1.972 7.495-1.972h10.074q.765 0 1.088.355.363.316.363 1.065v4.773q0 .75-.363 1.104-.322.316-1.088.316H22.84q-1.25 0-1.854.512-.605.474-.605 1.46v9.427q0 .985.444 1.459.483.473 1.41.473h3.909v-6.153q0-.75.322-1.065.363-.354 1.128-.355h6.246q.766 0 1.088.355.363.316.363 1.065v12.188q0 .75-.362 1.104-.323.316-1.089.316m-10.96-3.55h8.019v-7.928h-.403v7.533H22.88q-4.07 0-5.48-1.064-1.37-1.065-1.37-3.63V17.705q0-2.603 1.249-3.668 1.248-1.104 4.795-1.104h6.971v-.395h-6.971q-3.869 0-5.158 1.183t-1.29 3.984v11.044q0 1.381.283 2.366a3.33 3.33 0 0 0 1.128 1.578q.806.592 2.216.868t3.627.276" />
      <path
        d="M23.036 39.013q-5.28 0-7.818-2.09-2.498-2.091-2.498-6.35V18.265q0-4.26 2.499-6.35 2.538-2.09 7.817-2.09H33.11q.968 0 1.41.433.444.435.444 1.38v4.773q0 .947-.444 1.38-.443.435-1.41.435h-8.38q-1.008 0-1.532.394-.524.355-.524 1.183v9.427q0 .789.323 1.183.363.355 1.128.355h3.506V25.01q0-.947.443-1.38.444-.435 1.41-.435h6.246q.968 0 1.41.434.444.435.444 1.38v12.188q0 .948-.443 1.38-.444.435-1.41.435zm12.693-.395q.766 0 1.088-.315.363-.355.363-1.105V25.011q0-.75-.363-1.065-.322-.355-1.088-.355h-6.245q-.766 0-1.129.355-.322.315-.322 1.065v6.153h-3.909q-.927 0-1.41-.474-.444-.473-.444-1.459v-9.427q0-.985.605-1.459.604-.513 1.854-.513h8.381q.765 0 1.088-.315.363-.355.363-1.105V11.64q0-.75-.363-1.065-.322-.355-1.088-.355H23.036q-5.037 0-7.495 1.972-2.418 1.973-2.418 6.074v12.306q0 4.103 2.418 6.074 2.458 1.972 7.495 1.972zm-10.96-3.55q-2.217 0-3.627-.276t-2.216-.867a3.33 3.33 0 0 1-1.129-1.578q-.282-.986-.282-2.367V18.938q0-2.8 1.29-3.984 1.29-1.183 5.158-1.183h6.971v.394h-6.971q-3.546 0-4.796 1.104-1.248 1.065-1.249 3.669V29.98q0 2.565 1.37 3.63 1.41 1.064 5.48 1.064h7.617v-7.533h.403v7.928z" />
    </g>
    <path id="Rectangle 8" stroke="#0d6efd" stroke-width="2" d="M1 1h46v46H1z" />
  </g>
</svg>
